X: 1134
T: Hışhışı Hançer Boynuma
C: Azmi Körükçü
O: Turkey
F: http://compmusic.upf.edu/node/140
N: hicaz-humayun--turku--curcuna--hishisi_hancer--gaziantep
N: makam= hicaz-humayun
N: form= turku
N: usul= curcuna = 10/8
M: 10/8
L: 1/16
K: C _7/8B ^c  
Q: 1/4=180
%%MIDI tuningsystem comma53
.A4 d2d4d2 c2d6  | d2c2 d2c2 B2c4B4A2  | \
w:  ARANAĞME  |   | 
A4 A2c4B4c6  | A4 B6A8z2  | 
w:   |   | 
.A4 d2d4d2 c2d6  | d2c2 d2c2 B2c4B4A2  | \
w:  ARANAĞME  |   | 
A4 A2c4B4c6  | A4 B6A8z2  | 
w:   |   | 
A4 A2d4d4d4z2  | d2c2 d2c2 B2c4B4A2  | \
w:  Hış hı şı  han çer   |  boy *  nu ma  *  le le yi    | 
A4 A2d4d4d4z2  | d2c2 d2c2 B2c4B4A2  | 
w:  Hış hı şı  han çer   |  boy *  nu ma  *  le le yi    | 
A4 A2c4B4c6  | A4 B6A8z2  | A4 A2c4B4c6  | \
w:  Kü pe li  kız lar   |  ya nı ma    |  Kü pe li  kız lar   | 
A4 B6A8z2  | .e4 f2e2 d2d2 c2d6  | 
w:  ya nı ma    |  Ben  ha la *  yın   | 
d2c2 d2c2 B2c4B4A2  | .A4 d2d4d2 c2d6  | \
w:  ba *  şı yam  *  le le yi    |  Ben  ha la yın   | 
d2c2 d2c2 B2c4B4A2  | 
w:  ba *  şı yam  *  le le yi    | 
A4 A2c4B4c6  | A4 B4 A2A8z2  | A4 A2c4B4c6  | \
w:  İn ci li  kü pe   |  ka şı *  yam    |  İn ci li  kü pe   | 
A4 B4 A2A8z2  | .A4 d2d4d2 c2d6  | 
w:  ka şı *  yam    |  ARANAĞME  | 
d2c2 d2c2 B2c4B4A2  | A4 A2c4B4c6  | \
w:   |   | 
A4 B6A8z2  | .A4 d2d4d2 c2d6  | 
w:   |  ARANAĞME  | 
d2c2 d2c2 B2c4B4A2  | A4 A2c4B4c6  | \
w:   |   | 
A4 B6A8z2  | A4 A2d4d4d4z2  | 
w:   |  Hış hı şı  han çer   | 
d2c2 d2c2 B2c4B4A2  | A4 A2d4d4d4z2  | \
w:  boy *  nu ma  *  le le yi    |  Hış hı şı  han çer   | 
d2c2 d2c2 B2c4B4A2  | 
w:  boy *  nu ma  *  le le yi    | 
A4 A2c4B4c6  | A4 B6A8z2  | A4 A2c4B4c6  | \
w:  Kü pe li  kız lar   |  ya nı ma    |  Kü pe li  kız lar   | 
A4 B6A8z2  | .e4 f2e2 d2d2 c2d6  | 
w:  ya nı ma    |  Ben  ha la *  yın   | 
d2c2 d2c2 B2c4B4A2  | .A4 d2d4d2 c2d6  | \
w:  ba *  şı yam  *  le le yi    |  Ben  ha la yın   | 
d2c2 d2c2 B2c4B4A2  | 
w:  ba *  şı yam  *  le le yi    | 
A4 A2c4B4c6  | A4 B4 A2A8z2  | A4 A2c4B4c6  | \
w:  İn ci li  kü pe   |  ka şı *  yam    |  İn ci li  kü pe   | 
A4 B4 A2A8z2  | |


